X:165 
T:Piper's Delusion* (reel), The 
F:file ID: cre.5/165pipers_d
B:CRE5.205 (gan ainm)
M:4/4
Q:180
R:reel
K:G
e2dc BGGc|BGdc BGGd|e2dc BGGB|cB (3Ace g2gd|
e2dc BGGc|BGdc BGGd|e2dc BGGB|cB (3Ace g2||
|:ef|gdfd eAAc|BGdc BGGd|gdfd eAAB|1 cBce g2:|\
[2 cBAF G4-|G8|]

%%%

